X: 1
T: L\'evis Beaulieu
R:reel
Z:
M:C|
K:A
ed |\
"A"c2AA AcBA | "D"FBAF "A"E3A | "Bm"BABc d2B2 | "E"AAAc efed |
"A"c2AA AcBA | "D"FBAF "A"E3A | "Bm"BABc "E"dBed |1 "A"c2A2 A2 :|2 "A"c2A2 A2 |]
|: ce |\
"A"a2ab afed | cAce a2ef | "G"=g2ga ged=c | B=GBd =g2e^g |
"A"a2ab afed | cAce a2ee | "Bm"efec "E"dBed |1 "A"c2A2 A2 :|2 "A"c2A2 A2 |]
